X: 23
T: No_30_Song_Addressed_to_a_New_Chief.krn
N: Derived from No_30_Song_Addressed_to_a_New_Chief.krn
%%abc-version 2.0
%%abcx-abcm2ps-target-version 5.9.1 (29 Sep 2008)
%%abc-creator hum2abc beta
%%abcx-conversion-date 2019/03/15 08:25:35
%%humdrum-veritas 1493359694
%%humdrum-veritas-data 2894017109
%%linebreak <none>
%%barnumbers 0
L: 1/8
M: 3/4
K: Ab clef=bass
[K:clef=bass][M:3/4]z4E,3/E,/ ]|:  
E2E2E2 | 
[M:5/8]CCCA,A, | 
[M:2/4]A,2A,3/E,/ | 
E2E2 | 
[M:3/4]EF GEE2 | 
CB, CB,B,2 | 
C2A,2z2 | 
[M:5/8]CA,E,E,2 | 
[M:2/4]CA, CB, | 
[M:3/4]CA,- A,A,A,2 | 
[M:2/4]C/A,3/ (3A,A,E, | 
C/A,3/ A,/A,/E,/A,/ | 
(3CA,A, A,3/E,/ | 
A,3/C/ A,3/A,/ | 
(3E,E,E, A,3/E,/ | 
[M:3/4]E,3/E,/ E,E,/E,/ E, z | 
[M:2/4](3E,E,E, E,E,/C,/ :|]  
(3G,G,G,G,2 | 
E,/C,/E/E/ (3FCF | 
E3/E/E2 | 
[M:5/8]CCA,A,2 | 
[M:3/4]F,/F,/F/E/ (3:2:7FCF FEE/ z/ | 
[M:2/4]C3/E/ B,3/B,/ | 
[M:3/4](3CA,A, E,3/E,/z2 | 
[M:2/4](3CA,A,A,2 | 
A,3/E,/E,2 | 
C/A,3/A,2 | 
A,/E,3/ E,3/A,/ | 
(3CA,A, C3/A,/ | 
[M:5/8]E,3/A,/z2C | 
[M:2/4]A,3/A,/ (3A,E,E, | 
E,3/A,/ A,3/A,/ | 
(3A,E,E, E,3/A,/ | 
[M:3/8]C/A,/C/B,/A,/E,/ | 
[M:2/4]A,3/A,/ A, z | 
A,3/A,/z2 | 
(3EEC E3/G/ | 
E2E/C/C/B,/ | 
(3CA,A, A,3/A,/ | 
[M:3/4](3CB,B, (3CA,A, A,3/C/ | 
[M:2/4]A,/A,3/ (3A,E,E, | 
C/A,3/ (3A,E,E, | 
(3CCB, A,A,/A,/ | 
(3CB,C A,3/C/ | 
[M:3/4]A,3/A,/A,2(3:2:4A,E,E,/ z/ | 
[M:2/4](3CB,C A,3/C/ | 
(3CA,A, A,3/A,/ | 
[M:3/4]E,3/E,/ E,3/E,/ E, z | 
[M:2/4](3CB,C A,3/C/ | 
[M:5/8](3CA,A, A, z A, | 
[M:2/4]E,3/E,/ E,3/E,/ | 
E,3/A,/ A,3/A,/ | 
E,3/E,/ E,3/E,/ | 
[M:3/4]E,3/A,/ E,3/E,/ E,3/E,/ | 
E,2z2z2 |]  



